icons/OpenLotus/actions/16/draw-cross.svg

<?xml version="1.0" encoding="UTF-8" standalone="no"?>
<!-- Created with Inkscape (http://www.inkscape.org/) -->

<svg
   xmlns:dc="http://purl.org/dc/elements/1.1/"
   xmlns:cc="http://creativecommons.org/ns#"
   xmlns:rdf="http://www.w3.org/1999/02/22-rdf-syntax-ns#"
   xmlns:svg="http://www.w3.org/2000/svg"
   xmlns="http://www.w3.org/2000/svg"
   xmlns:sodipodi="http://sodipodi.sourceforge.net/DTD/sodipodi-0.dtd"
   xmlns:inkscape="http://www.inkscape.org/namespaces/inkscape"
   width="16"
   height="16"
   viewBox="0 0 16 16"
   version="1.1"
   id="svg8"
   inkscape:version="0.92+devel (ab74a354e7, 2017-08-02, custom)"
   sodipodi:docname="draw-cross.svg">
  <defs
     id="ol-defs">
    <style
       id="current-color-scheme">      .ColorScheme-Text {
        color:#d0d0d0;
        stop-color:#d0d0d0;
      }
      .ColorScheme-Background {
        color:#212121;
        stop-color:#212121;
      }
      .ColorScheme-Highlight {
        color:#0039a9;
        stop-color:#0039a9;
      }
      .ColorScheme-ViewText {
        color:#d0d0d0;
        stop-color:#d0d0d0;
      }
      .ColorScheme-ViewBackground {
        color:#19191b;
        stop-color:#19191b;
      }
      .ColorScheme-ViewHover {
        color:#005cc7;
        stop-color:#005cc7;
      }
      .ColorScheme-ViewFocus{
        color:#002466;
        stop-color:#002466;
      }
      .ColorScheme-ButtonText {
        color:#d0d0d0;
        stop-color:#d0d0d0;
      }
      .ColorScheme-ButtonBackground {
        color:#232323;
        stop-color:#232323;                             
      }                                                 
      .ColorScheme-ButtonHover {                        
        color:#005cc7;                                  
        stop-color:#005cc7;                             
      }                                                 
      .ColorScheme-ButtonFocus{                         
        color:#0039a9;                                  
        stop-color:#0039a9;                             
      }</style>
    <style
       id="current-color-scheme-7">      .ColorScheme-Text {
        color:#d0d0d0;
        stop-color:#d0d0d0;
      }
      .ColorScheme-Background {
        color:#212121;
        stop-color:#212121;
      }
      .ColorScheme-Highlight {
        color:#0039a9;
        stop-color:#0039a9;
      }
      .ColorScheme-ViewText {
        color:#d0d0d0;
        stop-color:#d0d0d0;
      }
      .ColorScheme-ViewBackground {
        color:#19191b;
        stop-color:#19191b;
      }
      .ColorScheme-ViewHover {
        color:#005cc7;
        stop-color:#005cc7;
      }
      .ColorScheme-ViewFocus{
        color:#002466;
        stop-color:#002466;
      }
      .ColorScheme-ButtonText {
        color:#d0d0d0;
        stop-color:#d0d0d0;
      }
      .ColorScheme-ButtonBackground {
        color:#232323;
        stop-color:#232323;                             
      }                                                 
      .ColorScheme-ButtonHover {                        
        color:#005cc7;                                  
        stop-color:#005cc7;                             
      }                                                 
      .ColorScheme-ButtonFocus{                         
        color:#0039a9;                                  
        stop-color:#0039a9;                             
      }</style>
    <style
       type="text/css"
       id="current-color-scheme-6">
      .ColorScheme-Text {
        color:#f2f2f2;
      }
      </style>
    <style
       id="current-color-scheme-75">      .ColorScheme-Text {
        color:#d0d0d0;
        stop-color:#d0d0d0;
      }
      .ColorScheme-Background {
        color:#212121;
        stop-color:#212121;
      }
      .ColorScheme-Highlight {
        color:#0039a9;
        stop-color:#0039a9;
      }
      .ColorScheme-ViewText {
        color:#d0d0d0;
        stop-color:#d0d0d0;
      }
      .ColorScheme-ViewBackground {
        color:#19191b;
        stop-color:#19191b;
      }
      .ColorScheme-ViewHover {
        color:#005cc7;
        stop-color:#005cc7;
      }
      .ColorScheme-ViewFocus{
        color:#002466;
        stop-color:#002466;
      }
      .ColorScheme-ButtonText {
        color:#d0d0d0;
        stop-color:#d0d0d0;
      }
      .ColorScheme-ButtonBackground {
        color:#232323;
        stop-color:#232323;                             
      }                                                 
      .ColorScheme-ButtonHover {                        
        color:#005cc7;                                  
        stop-color:#005cc7;                             
      }                                                 
      .ColorScheme-ButtonFocus{                         
        color:#0039a9;                                  
        stop-color:#0039a9;                             
      }</style>
    <style
       id="current-color-scheme-7-3">      .ColorScheme-Text {
        color:#d0d0d0;
        stop-color:#d0d0d0;
      }
      .ColorScheme-Background {
        color:#212121;
        stop-color:#212121;
      }
      .ColorScheme-Highlight {
        color:#0039a9;
        stop-color:#0039a9;
      }
      .ColorScheme-ViewText {
        color:#d0d0d0;
        stop-color:#d0d0d0;
      }
      .ColorScheme-ViewBackground {
        color:#19191b;
        stop-color:#19191b;
      }
      .ColorScheme-ViewHover {
        color:#005cc7;
        stop-color:#005cc7;
      }
      .ColorScheme-ViewFocus{
        color:#002466;
        stop-color:#002466;
      }
      .ColorScheme-ButtonText {
        color:#d0d0d0;
        stop-color:#d0d0d0;
      }
      .ColorScheme-ButtonBackground {
        color:#232323;
        stop-color:#232323;                             
      }                                                 
      .ColorScheme-ButtonHover {                        
        color:#005cc7;                                  
        stop-color:#005cc7;                             
      }                                                 
      .ColorScheme-ButtonFocus{                         
        color:#0039a9;                                  
        stop-color:#0039a9;                             
      }</style>
    <style
       id="current-color-scheme-6-5"
       type="text/css">
      .ColorScheme-Text {
        color:#f2f2f2;
      }
      </style>
    <style
       id="current-color-scheme-70">      .ColorScheme-Text {
        color:#d0d0d0;
        stop-color:#d0d0d0;
      }
      .ColorScheme-Background {
        color:#212121;
        stop-color:#212121;
      }
      .ColorScheme-Highlight {
        color:#0039a9;
        stop-color:#0039a9;
      }
      .ColorScheme-ViewText {
        color:#d0d0d0;
        stop-color:#d0d0d0;
      }
      .ColorScheme-ViewBackground {
        color:#19191b;
        stop-color:#19191b;
      }
      .ColorScheme-ViewHover {
        color:#005cc7;
        stop-color:#005cc7;
      }
      .ColorScheme-ViewFocus{
        color:#002466;
        stop-color:#002466;
      }
      .ColorScheme-ButtonText {
        color:#d0d0d0;
        stop-color:#d0d0d0;
      }
      .ColorScheme-ButtonBackground {
        color:#232323;
        stop-color:#232323;                             
      }                                                 
      .ColorScheme-ButtonHover {                        
        color:#005cc7;                                  
        stop-color:#005cc7;                             
      }                                                 
      .ColorScheme-ButtonFocus{                         
        color:#0039a9;                                  
        stop-color:#0039a9;                             
      }</style>
    <style
       id="current-color-scheme-7-9">      .ColorScheme-Text {
        color:#d0d0d0;
        stop-color:#d0d0d0;
      }
      .ColorScheme-Background {
        color:#212121;
        stop-color:#212121;
      }
      .ColorScheme-Highlight {
        color:#0039a9;
        stop-color:#0039a9;
      }
      .ColorScheme-ViewText {
        color:#d0d0d0;
        stop-color:#d0d0d0;
      }
      .ColorScheme-ViewBackground {
        color:#19191b;
        stop-color:#19191b;
      }
      .ColorScheme-ViewHover {
        color:#005cc7;
        stop-color:#005cc7;
      }
      .ColorScheme-ViewFocus{
        color:#002466;
        stop-color:#002466;
      }
      .ColorScheme-ButtonText {
        color:#d0d0d0;
        stop-color:#d0d0d0;
      }
      .ColorScheme-ButtonBackground {
        color:#232323;
        stop-color:#232323;                             
      }                                                 
      .ColorScheme-ButtonHover {                        
        color:#005cc7;                                  
        stop-color:#005cc7;                             
      }                                                 
      .ColorScheme-ButtonFocus{                         
        color:#0039a9;                                  
        stop-color:#0039a9;                             
      }</style>
    <style
       id="current-color-scheme-75-3">      .ColorScheme-Text {
        color:#d0d0d0;
        stop-color:#d0d0d0;
      }
      .ColorScheme-Background {
        color:#212121;
        stop-color:#212121;
      }
      .ColorScheme-Highlight {
        color:#0039a9;
        stop-color:#0039a9;
      }
      .ColorScheme-ViewText {
        color:#d0d0d0;
        stop-color:#d0d0d0;
      }
      .ColorScheme-ViewBackground {
        color:#19191b;
        stop-color:#19191b;
      }
      .ColorScheme-ViewHover {
        color:#005cc7;
        stop-color:#005cc7;
      }
      .ColorScheme-ViewFocus{
        color:#002466;
        stop-color:#002466;
      }
      .ColorScheme-ButtonText {
        color:#d0d0d0;
        stop-color:#d0d0d0;
      }
      .ColorScheme-ButtonBackground {
        color:#232323;
        stop-color:#232323;                             
      }                                                 
      .ColorScheme-ButtonHover {                        
        color:#005cc7;                                  
        stop-color:#005cc7;                             
      }                                                 
      .ColorScheme-ButtonFocus{                         
        color:#0039a9;                                  
        stop-color:#0039a9;                             
      }</style>
    <style
       id="current-color-scheme-3">      .ColorScheme-Text {
        color:#d0d0d0;
        stop-color:#d0d0d0;
      }
      .ColorScheme-Background {
        color:#212121;
        stop-color:#212121;
      }
      .ColorScheme-Highlight {
        color:#0039a9;
        stop-color:#0039a9;
      }
      .ColorScheme-ViewText {
        color:#d0d0d0;
        stop-color:#d0d0d0;
      }
      .ColorScheme-ViewBackground {
        color:#19191b;
        stop-color:#19191b;
      }
      .ColorScheme-ViewHover {
        color:#005cc7;
        stop-color:#005cc7;
      }
      .ColorScheme-ViewFocus{
        color:#002466;
        stop-color:#002466;
      }
      .ColorScheme-ButtonText {
        color:#d0d0d0;
        stop-color:#d0d0d0;
      }
      .ColorScheme-ButtonBackground {
        color:#232323;
        stop-color:#232323;                             
      }                                                 
      .ColorScheme-ButtonHover {                        
        color:#005cc7;                                  
        stop-color:#005cc7;                             
      }                                                 
      .ColorScheme-ButtonFocus{                         
        color:#0039a9;                                  
        stop-color:#0039a9;                             
      }</style>
    <style
       type="text/css"
       id="current-color-scheme-67">
      .ColorScheme-Text {
        color:#f2f2f2;
      }
      </style>
    <style
       type="text/css"
       id="current-color-scheme-675">
      .ColorScheme-Text {
        color:#f2f2f2;
      }
      </style>
    <style
       id="current-color-scheme-753">      .ColorScheme-Text {
        color:#d0d0d0;
        stop-color:#d0d0d0;
      }
      .ColorScheme-Background {
        color:#212121;
        stop-color:#212121;
      }
      .ColorScheme-Highlight {
        color:#0039a9;
        stop-color:#0039a9;
      }
      .ColorScheme-ViewText {
        color:#d0d0d0;
        stop-color:#d0d0d0;
      }
      .ColorScheme-ViewBackground {
        color:#19191b;
        stop-color:#19191b;
      }
      .ColorScheme-ViewHover {
        color:#005cc7;
        stop-color:#005cc7;
      }
      .ColorScheme-ViewFocus{
        color:#002466;
        stop-color:#002466;
      }
      .ColorScheme-ButtonText {
        color:#d0d0d0;
        stop-color:#d0d0d0;
      }
      .ColorScheme-ButtonBackground {
        color:#232323;
        stop-color:#232323;                             
      }                                                 
      .ColorScheme-ButtonHover {                        
        color:#005cc7;                                  
        stop-color:#005cc7;                             
      }                                                 
      .ColorScheme-ButtonFocus{                         
        color:#0039a9;                                  
        stop-color:#0039a9;                             
      }</style>
    <style
       id="current-color-scheme-7535">      .ColorScheme-Text {
        color:#d0d0d0;
        stop-color:#d0d0d0;
      }
      .ColorScheme-Background {
        color:#212121;
        stop-color:#212121;
      }
      .ColorScheme-Highlight {
        color:#0039a9;
        stop-color:#0039a9;
      }
      .ColorScheme-ViewText {
        color:#d0d0d0;
        stop-color:#d0d0d0;
      }
      .ColorScheme-ViewBackground {
        color:#19191b;
        stop-color:#19191b;
      }
      .ColorScheme-ViewHover {
        color:#005cc7;
        stop-color:#005cc7;
      }
      .ColorScheme-ViewFocus{
        color:#002466;
        stop-color:#002466;
      }
      .ColorScheme-ButtonText {
        color:#d0d0d0;
        stop-color:#d0d0d0;
      }
      .ColorScheme-ButtonBackground {
        color:#232323;
        stop-color:#232323;                             
      }                                                 
      .ColorScheme-ButtonHover {                        
        color:#005cc7;                                  
        stop-color:#005cc7;                             
      }                                                 
      .ColorScheme-ButtonFocus{                         
        color:#0039a9;                                  
        stop-color:#0039a9;                             
      }</style>
  </defs>
  <sodipodi:namedview
     id="base"
     pagecolor="#002266"
     bordercolor="#ffffff"
     borderopacity="0.46666667"
     inkscape:pageopacity="0"
     inkscape:pageshadow="2"
     inkscape:zoom="27.375"
     inkscape:cx="8"
     inkscape:cy="8"
     inkscape:document-units="px"
     inkscape:current-layer="svg8"
     inkscape:document-rotation="0"
     showgrid="false"
     inkscape:showpageshadow="false"
     borderlayer="true"
     units="px"
     fit-margin-top="0"
     fit-margin-left="0"
     fit-margin-right="0"
     fit-margin-bottom="0"
     inkscape:window-width="1920"
     inkscape:window-height="1023"
     inkscape:window-x="0"
     inkscape:window-y="28"
     inkscape:window-maximized="1"
     inkscape:snap-page="true"
     guidecolor="#f4ff00"
     guideopacity="0.42745098"
     guidehicolor="#4fff00"
     guidehiopacity="0.49803922">
    <inkscape:grid
       type="xygrid"
       id="grid855" />
  </sodipodi:namedview>
  <metadata
     id="metadata5">
    <rdf:RDF>
      <cc:Work
         rdf:about="">
        <dc:format>image/svg+xml</dc:format>
        <dc:type
           rdf:resource="http://purl.org/dc/dcmitype/StillImage" />
        <dc:title></dc:title>
      </cc:Work>
    </rdf:RDF>
  </metadata>
  <g
     id="g838"
     inkscape:label="#draw-cross">
    <rect
       style="vector-effect:none;fill:none;stroke-width:1.58677685;stroke-linecap:round"
       id="rect4264-9"
       width="16"
       height="16"
       x="0"
       y="0"
       inkscape:label="#boundary" />
    <path
       inkscape:label="#1"
       inkscape:connector-curvature="0"
       id="rect827"
       d="M 6.0869141,2 V 6.0869141 H 2 V 9.913086 H 6.0869141 V 14 H 9.9130858 V 9.913086 H 14 V 6.0869141 H 9.9130858 V 2 Z"
       style="opacity:0.6;fill:#d0d0d0;stroke-width:0.75" />
  </g>
</svg>

<svg xmlns="http://www.w3.org/2000/svg" viewBox="0 0 16 16">
  <defs id="defs3051">
    <style type="text/css" id="current-color-scheme">
      .ColorScheme-Text {
        color:#f2f2f2;
      }
      </style>
  </defs>
 <path style="fill:currentColor;fill-opacity:1;stroke:none" 
     d="m6 2v4h-4v4h4v4h4v-4h4v-4h-4v-4zm1 1h2v4h4v2h-4v4h-2v-4h-4v-2h4v-1z"
     class="ColorScheme-Text"
     />
</svg>
